src/components/footer/images/iconEmail.svg

<svg width="19" height="17" viewBox="0 0 19 17" fill="none" xmlns="http://www.w3.org/2000/svg">
<path fill-rule="evenodd" clip-rule="evenodd" d="M0.740978 0.0338716L9.5 8.79289L18.259 0.0338716C18.1764 0.0117786 18.0896 0 18 0H1C0.91042 0 0.823592 0.0117786 0.740978 0.0338716ZM0.0338717 0.740978L9.14645 9.85355L9.5 10.2071L9.85355 9.85355L18.9661 0.740979C18.9882 0.823592 19 0.91042 19 1V15.0769C19 15.6292 18.5523 16.0769 18 16.0769H1C0.447715 16.0769 0 15.6292 0 15.0769V1C0 0.91042 0.0117786 0.823592 0.0338717 0.740978Z" fill="white"/>
</svg>

<svg width="19" height="17" fill="none" xmlns="http://www.w3.org/2000/svg"><path fill-rule="evenodd" clip-rule="evenodd" d="M.741.034L9.5 8.793l8.759-8.76A1.001 1.001 0 0018 0H1C.91 0 .824.012.741.034zM.034.74l9.112 9.113.354.353.354-.353L18.966.74c.022.083.034.17.034.259v14.077a1 1 0 01-1 1H1a1 1 0 01-1-1V1C0 .91.012.824.034.741z" fill="#fff"/></svg>
